X: 24716
T: Macroom Lasses, The
R: reel
M: 4/4
K: Gmajor
D~G3 A2 ge|dBcA BGEG|DG E/F/G ~A2 ge|dBAc BGG:|
gdeg d2 Bd|cABG A ~E3|gdeg dgbg|agab g2 ga|
bgeg d/e/d B/c/d|cABG AG E/F/G|D~G3 A/B/A ge|dB c/B/A BGG||

